X:1
M:4/4
K:C
F|A3/2F/2 AG|GF GF|GB c3/2B/2|GB BG|F32|F2 A3/2A/2|\
GD Bc|d3/2A/2 GD|G2 A3/2A/2|A3/2c/2 d3/2B/2|
GB cd|ed d3|d3/2c/2 dB|G3d|d3/2e/2 dc|\
de f3/2g/2|
ad ce|f3/2g/2 dB|AB Bd|gf ef|ed ed|B3/2A/2 BA|G3/2G/2 Bd|
g2 dB|G3/2A/2 AG|E2 d3/2B/2|Ac BG|E2 G3/2D/2|FG G2|\
A3/2B/2 AG|FG A3/2A/2|FG FE|G3/2E/2 D2:|